X: 1
T:John Henry
M:2/4
L:1/8
C:Traditional
R:blues
K:G
GE | D D2 E | G2 GE | G G2 E | G3 G | B2 B2 | GEDE | G4- |
G2 GE | D D2 E | G2 GE | G G2 E | G3 d | e d2 c | BGED |
B2 B2 | G3 d | e d2 c | BGED | G4- | G2 z2 |]
